!!!COM: Palestrina, Giovanni Perluigi da
!!!OPR: O magnum mysterium
!!!OTL: Agnus I
**kern	**kern	**kern	**kern	**kern
*Ibass	*Itenor	*Icalto	*Icalto	*Icant
!Bassus	!Tenor	!Altus 2	!Altus 1	!Cantus
*clefF4	*clefGv2	*clefG2	*clefG2	*clefG2
*k[]	*k[]	*k[]	*k[]	*k[]
*E:phr	*E:phr	*E:phr	*E:phr	*E:phr
*M4/2	*M4/2	*M4/2	*M4/2	*M4/2
=1	=1	=1	=1	=1
0r	0E	0B	0e	0g#
=2	=2	=2	=2	=2
0AA	0A	0c#	0e	0a
=3	=3	=3	=3	=3
0D	1r	0d	0f#	0a
.	1D	.	.	.
=4	=4	=4	=4	=4
0r	1G	1d	1g	1b
.	2.F	1f	1a	1cc
.	4E	.	.	.
=5	=5	=5	=5	=5
0r	4D	2.f	2.a	2dd
.	4E	.	.	.
.	4F	.	.	2.cc
.	4G	8e	8g	.
.	.	8d	8f	.
.	4A	2c	2e	.
.	4B	.	.	4b
.	4c	[2e	2c	[2a
.	4A	.	.	.
=6	=6	=6	=6	=6
1r	1B	4e]	1d	2a]
.	.	4d	.	.
.	.	1d	.	2g#
[1AA	[1A	.	[1e	[1a
.	.	4c#	.	.
.	.	4B	.	.
=7	=7	=7	=7	=7
1AA]	1A]	4c#	2e]	0a]
.	.	4d	.	.
.	.	2e	2c#	.
1D	1A	1f#	1d	.
=8	=8	=8	=8	=8
2.C	2.c	1g	2.e	0r
4BB	4d	.	4d	.
4AA	2.e	2a	2.c	.
4BB	.	.	.	.
4C	.	[2g	.	.
4D	8d	.	8B	.
.	8c	.	8A	.
=9	=9	=9	=9	=9
4E	2B	4g]	2G	0r
4F	.	4f	.	.
4G	2G	1e	2.B	.
4E	.	.	.	.
1F	1A	.	.	.
.	.	.	4A	.
.	.	2d	2A	.
=10	=10	=10	=10	=10
1E	2B	1e	2G#	2r
.	2E	.	2B	2g#
1r	1A	2r	1c#	1a
.	.	2e	.	.
=11	=11	=11	=11	=11
0r	2D	1f	2d	2a
.	2d	.	2f	2a
.	2d	2d	2f	2b
.	2c	2e	2e	[2cc
=12	=12	=12	=12	=12
1AA	1A	2f	2.c	4cc]
.	.	.	.	4b
.	.	2.e	.	1a
.	.	.	4d	.
1E	1B	.	1e	.
.	.	4d	.	.
.	.	2B	.	2g#
=13	=13	=13	=13	=13
2AA	2.A	2c	2e	1a
2A	.	2A	2e	.
.	4B	.	.	.
2A	2c	2r	2f#	1r
2G	2d	2B	[2g	.
=14	=14	=14	=14	=14
1E	2G	1e	4g]	0r
.	.	.	4f	.
.	1c	.	1e	.
1F	.	2A	.	.
.	4B	2a	2d	.
.	4A	.	.	.
=15	=15	=15	=15	=15
1E	2B	2a	2e	1r
.	2E	2g	2B	.
1C	2G	1e	1c	2r
.	2A	.	.	2e
=16	=16	=16	=16	=16
1D	2.F	1.f	2A	1a
.	.	.	2a	.
.	4G	.	.	.
2D	2A	.	2a	2d
2GG	2B-	2d	2g	2dd
=17	=17	=17	=17	=17
1AA	1A	1r	1e	2dd
.	.	.	.	2cc
1r	1D	2r	1f	1a
.	.	2a	.	.
=18	=18	=18	=18	=18
1r	2r	2a	2.e	1b
.	2E	2g	.	.
.	.	.	4d	.
1AA	1A	1e	4c	[1a
.	.	.	4B	.
.	.	.	4A	.
.	.	.	4G	.
=19	=19	=19	=19	=19
1A	1D	1.f	2.F	0a]
.	.	.	4G	.
1D	2r	.	2A	.
.	2d	4e	2B-	.
.	.	4d	.	.
=20	=20	=20	=20	=20
2r	2d	2.e	1A	0r
2A	2c	.	.	.
.	.	4d	.	.
2A	2A	4e	2r	.
.	.	4f	.	.
2G	[2B	[2g	2d	.
=21	=21	=21	=21	=21
1E	2B]	4g]	1e	0r
.	.	4f	.	.
.	1c	1e	.	.
1F	.	.	2A	.
.	4B	2d	2a	.
.	4A	.	.	.
=22	=22	=22	=22	=22
2.E	2c	1e	2a	2r
.	2.B	.	2g	2e
4D	.	.	.	.
2C	.	1r	2e	1a
.	4A	.	.	.
2D	[2A	.	[2f	.
=23	=23	=23	=23	=23
1BB	2A]	1r	2f]	2d
.	2G#	.	4e	2dd
.	.	.	4d	.
2AA	1A	2r	2f	2dd
2A	.	2A	[2e	2cc
=24	=24	=24	=24	=24
2A	2r	2c	4e]	1a
.	.	.	4c	.
2F	2d	2d	2f	.
2G	2d	2B	1e	2b
[2A	2c	2A	.	[2cc
=25	=25	=25	=25	=25
4A]	1A	2c	1r	4cc]
4G	.	.	.	4b
2F	.	2d	.	1a
1E	1B	2.e	2r	.
.	.	.	[2e	2g#
.	.	4d	.	.
=26	=26	=26	=26	=26
0AA	[0A	2c	2e]	1a
.	.	1e	2e	.
.	.	.	2.a	1r
.	.	2e	.	.
.	.	.	4g	.
=27	=27	=27	=27	=27
0r	1A]	2.a	2f	1r
.	.	.	2e	.
.	.	4g	.	.
.	1r	2f	2d	[1a
.	.	2e	2c	.
=28	=28	=28	=28	=28
0r	2r	2d	2f	2a]
.	1A	1c	4e	2a
.	.	.	4d	.
.	.	.	2e	2.cc
.	2A	[2A	2f	.
.	.	.	.	4b
=29	=29	=29	=29	=29
0r	2.c	4A]	2.e	2.a
.	.	4B	.	.
.	.	2.c	.	.
.	4B	.	4d	4g
.	2A	.	2c	2f
.	.	4A	.	.
.	2G	2B	2B	2e
=30	=30	=30	=30	=30
1r	1F	2c	1A	1a
.	.	2d	.	.
2r	2E	[1e	1B	[1g#
[2E	2B	.	.	.
=31	=31	=31	=31	=31
2E]	2B	2e]	1r	1g#]
2E	2.e	2B	.	.
2.A	.	2c	2r	1r
.	4d	.	.	.
.	4c	[2A	[2c	.
4G	4B	.	.	.
=32	=32	=32	=32	=32
2F	2A	2A]	2c]	0r
2E	1c	2G	2c	.
1D	.	1F	[1f	.
.	2B	.	.	.
=33	=33	=33	=33	=33
0C	0c	1G	2f]	2r
.	.	.	4e	1g
.	.	.	4d	.
.	.	2r	1e	.
.	.	[2c	.	2g
=34	=34	=34	=34	=34
0r	0r	2c]	1A	2.cc
.	.	2c	.	.
.	.	.	.	4b
.	.	2.f	4d	2.a
.	.	.	4e	.
.	.	.	4f	.
.	.	4e	4g	4g
=35	=35	=35	=35	=35
0r	1r	2d	1a	2f
.	.	1c	.	2e
.	[1G	.	[1g	1d
.	.	2B	.	.
=36	=36	=36	=36	=36
1.C	2G]	2.c	1g]	0e
.	2G	.	.	.
.	.	4B	.	.
.	2.c	2A	2r	.
2C	.	2G	[2c	.
.	4B	.	.	.
=37	=37	=37	=37	=37
2.F	2.A	2.F	2c]	2r
.	.	.	2c	1a
4E	4G	4G	.	.
2D	2F	1A	2f	.
2C	[2A	.	2e	2a
=38	=38	=38	=38	=38
1BB	2A]	1r	2d	1dd
.	2G#	.	2e	.
1AA	2A	2r	2f	2.cc
.	[2A	[2e	4e	.
.	.	.	4d	4b
=39	=39	=39	=39	=39
0r	2A]	2e]	1.c	2a
.	2E	2e	.	2g
.	2F	1a	.	1f
.	2D	.	2d	.
=40	=40	=40	=40	=40
0r	1E	2.g	0B	2.e
.	.	4f	.	4f
.	1E	2e	.	4g
.	.	.	.	4a
.	.	2d	.	[2b
=41	=41	=41	=41	=41
1E	1.e	1c	1r	2b]
.	.	.	.	1a
1E	.	1B	[1e	.
.	2B	.	.	2g#
=42	=42	=42	=42	=42
2.A	2.c	2A	2e]	[0a
.	.	1c	2e	.
4G	4B	.	.	.
2F	1A	.	2.a	.
2E	.	2c	.	.
.	.	.	4g	.
=43	=43	=43	=43	=43
2D	1A	2d	2f	1a_
2C#	.	2e	2e	.
1D	1A	1f	1d	1a_
=44	=44	=44	=44	=44
[0AA	[0A	[0e	[0c#	0a]
=45	=45	=45	=45	=45
0AA]	0A]	0e]	0c#]	0a
==	==	==	==	==
*-	*-	*-	*-	*-
!!!CDT: 1525/^1526/-1594/2/2
!!!OCY: Italia
!!!AGN: Mass (Parody)
!!!AST: renaissance, vocal
!!!ASW: Motet 1569 (Palestrina)
!!!PWK: Masses, Book 4
!!!RNB: Cadence finals: A,C,G,F
!!!YOR: Le Opere Complete, v. 10, p. 150
!!!YOO: Rome, Italy: Fratelli Scalera
!!!END: 1992//
!!!EED: John Miller
!!!YEC: Copyright 2000, John Miller
!!!YEN: United States of America
!!!YEM: Rights to all derivative electronic formats reserved.
!!!YEM: Refer to licensing agreement for further details.
!!!YEM: This file must be accompanied by the licensing agreement.
!!!YEM: A copy of the licensing agreement may be found at http://www.music-cog.ohio-state.edu/HumdrumDatabases/Palestrina/license.txt
!!!EMD: converted to Humdrum by Bret Aarden
